source/images/icons/icon-cat-pro.svg

<svg width="67" height="28" viewBox="0 0 67 28" fill="none" xmlns="http://www.w3.org/2000/svg">
<g clip-path="url(#clip0_135_3258)">
<path d="M60.5591 2.87843C61.1364 1.95997 61.9036 1.17573 62.8091 0.578427C63.3091 0.228427 63.6091 0.228427 63.9091 0.878427C64.3091 1.82843 64.6591 2.82843 64.3591 3.87843C64.3045 4.05651 64.2942 4.24523 64.3291 4.4282C64.3639 4.61117 64.4429 4.78288 64.5591 4.92843C64.8591 5.32843 65.1091 5.72843 65.3591 6.07843C65.6994 6.51031 65.9201 7.02408 65.9991 7.5682C66.078 8.11231 66.0125 8.66763 65.8091 9.17843C65.6256 9.67433 65.5908 10.213 65.7091 10.7284C65.809 11.2234 65.809 11.7334 65.7091 12.2284C65.6687 12.5991 65.5187 12.9494 65.2782 13.2344C65.0377 13.5194 64.7177 13.7262 64.3591 13.8284C63.7196 13.9501 63.1488 14.3069 62.7591 14.8284C62.7119 14.9052 62.6457 14.9686 62.5669 15.0124C62.488 15.0562 62.3993 15.0789 62.3091 15.0784C61.7091 15.1784 60.2091 13.8284 60.2091 13.2284V12.9284C60.2591 11.1284 60.1591 10.9784 58.5091 10.2284C58.1638 10.1066 57.8544 9.90037 57.6091 9.62843C57.3091 9.22843 56.9091 9.27843 56.4591 9.42843C56.0091 9.57843 55.7591 9.87843 55.8091 10.3784C55.9599 11.5889 56.0101 12.8097 55.9591 14.0284C55.9624 14.1675 55.9966 14.3041 56.0591 14.4284C57.6091 16.6784 58.2091 19.3284 58.9591 21.8784C59.5591 23.8284 60.6591 24.8784 62.6591 25.0284C62.9792 25.054 63.2968 25.1041 63.6091 25.1784C64.02 25.2444 64.4017 25.4322 64.7048 25.7174C65.0078 26.0027 65.2183 26.3723 65.3091 26.7784C65.6591 27.8284 65.4591 28.0784 64.4091 28.0784H61.1591C60.7384 28.0997 60.3259 27.9562 60.0091 27.6784C59.5031 27.2514 58.9282 26.9132 58.3091 26.6784C57.6247 26.4258 57.0323 25.9728 56.6091 25.3784C56.0234 24.5602 55.3531 23.806 54.6091 23.1284C53.2091 21.6784 51.7091 20.2784 50.4091 18.7784C49.4195 17.7563 48.8486 16.4006 48.8091 14.9784C48.8091 14.5284 48.7091 14.3284 48.2091 14.5284C48.0594 14.6234 47.8864 14.6753 47.7091 14.6784C46.3091 14.6784 45.6091 15.5284 45.1091 16.7784C44.6591 17.8284 44.0591 18.8284 43.5091 19.8784C43.1972 20.5357 43.0269 21.2511 43.0091 21.9784C43.0091 23.1784 43.3091 23.5784 44.4091 23.9784C45.1091 24.2284 45.7591 24.4784 46.1091 25.1784C46.5091 25.9784 46.4091 26.1784 45.5591 26.2284H42.1591C41.9631 26.2478 41.7659 26.2052 41.5955 26.1065C41.425 26.0078 41.2899 25.8581 41.2091 25.6784L40.3091 24.1784C40.0438 23.7871 39.874 23.3389 39.8132 22.87C39.7524 22.4011 39.8024 21.9245 39.9591 21.4784C40.1755 20.6102 40.1926 19.7042 40.0091 18.8284C39.8831 18.2185 39.8939 17.5882 40.0409 16.9829C40.1879 16.3777 40.4674 15.8126 40.8591 15.3284C41.1591 14.9784 41.1591 14.8284 40.6591 14.7284C38.6146 14.2941 36.6325 13.6054 34.7591 12.6784C34.7459 12.6784 34.7331 12.6732 34.7238 12.6638C34.7144 12.6544 34.7091 12.6417 34.7091 12.6284C33.1091 12.0284 32.8091 12.1284 32.3591 13.7784C31.9591 15.1784 31.5591 16.5784 31.2591 18.0284C30.9091 19.6284 31.3091 21.1284 31.8091 22.6284C32.0091 23.2284 32.6091 23.1784 33.0591 23.3284C34.0591 23.6284 34.9091 24.0284 35.3091 25.0784C35.6591 25.8784 35.6091 25.9784 34.7591 25.9784C33.9091 25.9784 33.0591 25.9284 32.1591 25.9784C31.3997 25.9922 30.6584 25.7451 30.0591 25.2784C27.6591 23.6784 26.9591 21.2284 26.7591 18.5784C26.6591 16.9284 25.7591 15.6284 24.7091 14.3784C24.5091 14.1284 24.3091 14.0284 24.0091 14.2284C22.9359 14.8202 21.8153 15.3219 20.6591 15.7284C18.2462 16.5804 16.1289 18.1077 14.5591 20.1284C13.9729 20.8659 13.5933 21.746 13.4591 22.6784C13.3091 23.5784 13.5591 23.9784 14.4591 24.2284C15.3591 24.4784 15.8091 24.9784 15.9091 25.9284C15.9591 26.3284 15.8091 26.5284 15.4091 26.5284H11.3591C11.2266 26.519 11.0982 26.4778 10.9851 26.4081C10.8719 26.3385 10.7772 26.2425 10.7091 26.1284C10.081 25.3508 9.74494 24.3779 9.75912 23.3784C9.73288 21.6509 9.88366 19.9252 10.2091 18.2284C10.2759 17.7203 10.4656 17.2361 10.7618 16.8178C11.0581 16.3996 11.4519 16.06 11.9091 15.8284C14.8591 14.4284 16.4091 11.7784 17.8091 9.02843C18.1091 8.47843 17.8591 8.37843 17.3591 8.42843C15.9598 8.62269 14.634 9.17368 13.5091 10.0284C12.0362 11.1029 10.6487 12.2897 9.35912 13.5784C7.98394 14.9753 6.16046 15.8427 4.20911 16.0284C0.559114 16.2284 -1.14089 14.1784 -0.990885 10.8784C-0.957354 9.75323 -0.533061 8.67482 0.209115 7.82843C0.467126 7.49393 0.818981 7.24392 1.21975 7.11033C1.62052 6.97674 2.05201 6.96563 2.45912 7.07843C3.20912 7.27843 3.40911 7.67843 3.10911 8.42843C2.95911 8.72843 2.75911 8.97843 2.60911 9.27843C2.39341 9.58491 2.22488 9.92198 2.10911 10.2784C1.55911 11.7784 2.30911 12.8284 3.85911 12.9784C5.50911 13.1284 6.85912 12.4284 8.10912 11.4284C9.61508 10.2226 10.9595 8.82775 12.1091 7.27843C12.9687 6.14713 14.0512 5.20407 15.2895 4.50749C16.5279 3.81091 17.8959 3.37559 19.3091 3.22843C20.4591 3.07843 21.4591 2.57843 22.5591 2.27843C24.6164 1.65123 26.7586 1.34761 28.9091 1.37843C29.9052 1.41991 30.8974 1.23172 31.8091 0.828427C34.2591 -0.171573 36.8091 -0.171573 39.3591 0.328427C41.3591 0.728427 43.3591 1.22843 45.3091 1.72843C46.4696 1.94467 47.6629 1.91057 48.8091 1.62843C51.0034 1.07219 53.248 0.737189 55.5091 0.628427C56.9904 0.55636 58.4667 0.848196 59.8091 1.47843C60.8091 1.92843 60.8091 1.92843 60.5591 2.87843Z" fill="black"/>
</g>
<defs>
<clipPath id="clip0_135_3258">
<rect width="67" height="28" fill="white"/>
</clipPath>
</defs>
</svg>

<svg viewBox="0 0 67 28" fill="none" xmlns="http://www.w3.org/2000/svg"><g clip-path="url(#a)"><path d="M60.56 2.88a7.6 7.6 0 0 1 2.25-2.3c.5-.35.8-.35 1.1.3.4.95.75 1.95.45 3a1.14 1.14 0 0 0 .2 1.05c.3.4.55.8.8 1.15a3.13 3.13 0 0 1 .45 3.1c-.18.5-.22 1.03-.1 1.55.1.5.1 1 0 1.5a1.87 1.87 0 0 1-1.35 1.6 2.6 2.6 0 0 0-1.6 1 .53.53 0 0 1-.45.25c-.6.1-2.1-1.25-2.1-1.85v-.3c.05-1.8-.05-1.95-1.7-2.7a2.2 2.2 0 0 1-.9-.6c-.3-.4-.7-.35-1.15-.2-.45.15-.7.45-.65.95.15 1.2.2 2.43.15 3.65 0 .14.04.27.1.4 1.55 2.25 2.15 4.9 2.9 7.45.6 1.95 1.7 3 3.7 3.15.32.02.64.07.95.15a2.08 2.08 0 0 1 1.7 1.6c.35 1.05.15 1.3-.9 1.3h-3.25c-.42.02-.83-.12-1.15-.4a5.86 5.86 0 0 0-1.7-1 3.63 3.63 0 0 1-1.7-1.3 14.3 14.3 0 0 0-2-2.25c-1.4-1.45-2.9-2.85-4.2-4.35a5.69 5.69 0 0 1-1.6-3.8c0-.45-.1-.65-.6-.45a.96.96 0 0 1-.5.15c-1.4 0-2.1.85-2.6 2.1-.45 1.05-1.05 2.05-1.6 3.1a5.2 5.2 0 0 0-.5 2.1c0 1.2.3 1.6 1.4 2 .7.25 1.35.5 1.7 1.2.4.8.3 1-.55 1.05h-3.4a.94.94 0 0 1-.95-.55l-.9-1.5a3.02 3.02 0 0 1-.35-2.7c.22-.87.23-1.78.05-2.65a4.21 4.21 0 0 1 .85-3.5c.3-.35.3-.5-.2-.6a25.03 25.03 0 0 1-5.95-2.1c-1.6-.6-1.9-.5-2.35 1.15-.4 1.4-.8 2.8-1.1 4.25-.35 1.6.05 3.1.55 4.6.2.6.8.55 1.25.7 1 .3 1.85.7 2.25 1.75.35.8.3.9-.55.9-.85 0-1.7-.05-2.6 0-.76.01-1.5-.23-2.1-.7-2.4-1.6-3.1-4.05-3.3-6.7-.1-1.65-1-2.95-2.05-4.2-.2-.25-.4-.35-.7-.15-1.07.59-2.2 1.1-3.35 1.5a13.36 13.36 0 0 0-6.1 4.4 5.32 5.32 0 0 0-1.1 2.55c-.15.9.1 1.3 1 1.55s1.35.75 1.45 1.7c.05.4-.1.6-.5.6h-4.05a.82.82 0 0 1-.65-.4 4.28 4.28 0 0 1-.95-2.75 25.3 25.3 0 0 1 .45-5.15 3.15 3.15 0 0 1 1.7-2.4c2.95-1.4 4.5-4.05 5.9-6.8.3-.55.05-.65-.45-.6-1.4.2-2.73.74-3.85 1.6a35.31 35.31 0 0 0-4.15 3.55 8.33 8.33 0 0 1-5.15 2.45c-3.65.2-5.35-1.85-5.2-5.15.03-1.13.46-2.2 1.2-3.05a2.13 2.13 0 0 1 2.25-.75c.75.2.95.6.65 1.35-.15.3-.35.55-.5.85-.22.3-.39.64-.5 1-.55 1.5.2 2.55 1.75 2.7 1.65.15 3-.55 4.25-1.55 1.5-1.2 2.85-2.6 4-4.15a10.4 10.4 0 0 1 7.2-4.05c1.15-.15 2.15-.65 3.25-.95a20.7 20.7 0 0 1 6.35-.9 6.5 6.5 0 0 0 2.9-.55c2.45-1 5-1 7.55-.5 2 .4 4 .9 5.95 1.4 1.16.21 2.35.18 3.5-.1 2.2-.56 4.44-.9 6.7-1a9.08 9.08 0 0 1 4.3.85c1 .45 1 .45.75 1.4Z" fill="#000"/></g><defs><clipPath id="a"><path fill="#fff" d="M0 0h67v28h-67z"/></clipPath></defs></svg>
